src/assets/logos/ordum-logo-black.svg

<svg width="185" height="41" viewBox="0 0 185 41" fill="none" xmlns="http://www.w3.org/2000/svg">
<path d="M57.928 35.7132C66.7127 35.7132 72.431 30.078 72.431 21.4181C72.431 12.7582 66.7127 7.12305 57.928 7.12305C49.2261 7.12305 43.4663 12.7582 43.4663 21.4181C43.4663 30.078 49.2261 35.7132 57.928 35.7132ZM57.928 31.4039C51.3394 31.4039 48.1902 28.3377 48.1902 21.4181C48.1902 14.4985 51.3394 11.3908 57.928 11.3908C64.5165 11.3908 67.7072 14.4985 67.7072 21.4181C67.7072 28.3377 64.5165 31.4039 57.928 31.4039Z" fill="black"/>
<path d="M80.2125 35.2988V23.7385C80.2125 20.0508 81.6628 18.1033 85.185 18.1033C88.2514 18.1033 89.4945 19.4707 89.4945 22.4125V24.2357H93.9283V21.5424C93.9283 17.6475 91.8979 14.2913 87.2154 14.2913C82.9888 14.2913 80.7512 16.9431 80.1296 20.2579H79.8396V14.7056H75.7373V35.2988H80.2125Z" fill="black"/>
<path d="M105.814 35.7132C110.455 35.7132 113.48 33.4757 114.35 29.3736H114.64V35.2988H118.742V7.5374H114.267V20.2994H114.019C113.19 16.8188 110.414 14.2913 105.524 14.2913C99.2669 14.2913 95.7033 18.6005 95.7033 25.023C95.7033 31.3625 99.3084 35.7132 105.814 35.7132ZM100.22 25.023C100.22 20.0508 102.789 18.3519 107.099 18.3519C111.698 18.3519 114.267 20.5065 114.267 24.8986V25.2301C114.267 29.5394 111.574 31.6111 107.181 31.6111C102.748 31.6111 100.22 29.9537 100.22 25.023Z" fill="black"/>
<path d="M131.458 35.7132C136.762 35.7132 139.497 32.3984 140.16 28.9178H140.408V35.2988H144.511V14.7056H140.077V24.8986C140.077 29.3736 137.964 31.694 133.405 31.694C129.055 31.694 127.273 29.7465 127.273 25.8931V14.7056H122.839V27.0947C122.839 31.8597 125.657 35.7132 131.458 35.7132Z" fill="black"/>
<path d="M153.052 35.2988V25.1058C153.052 20.548 154.585 18.3105 159.019 18.3105C162.997 18.3105 164.571 20.0508 164.571 24.1114V35.2988H169.005V25.1058C169.005 20.548 170.58 18.3105 174.972 18.3105C178.95 18.3105 180.566 20.0508 180.566 24.1114V35.2988H185V22.9098C185 17.9376 182.306 14.2913 176.961 14.2913C171.74 14.2913 169.419 17.5647 168.881 21.0866H168.632C168.052 17.1503 165.524 14.2913 160.842 14.2913C155.704 14.2913 153.466 17.4818 152.927 20.9209H152.679V14.7056H148.576V35.2988H153.052Z" fill="black"/>
<g clip-path="url(#clip0_2383_36666)">
<path d="M27.496 9.68688C27.4777 9.66866 27.4777 9.63221 27.496 9.61398C27.5143 9.59575 27.5509 9.59575 27.5692 9.61398C30.0947 12.1292 31.1561 15.6287 30.8358 19.2466C30.5156 22.8645 28.8045 26.601 25.7941 29.5992C23.4974 31.8866 20.7798 33.4176 18.0165 34.1558C15.1708 34.9213 12.261 34.8484 9.72641 33.9097C9.69896 33.9006 9.68981 33.8733 9.69896 33.8459C9.70811 33.8186 9.73556 33.8095 9.76301 33.8186C12.2793 34.7481 15.1616 34.8211 17.9982 34.0555C20.7524 33.3174 23.4517 31.7955 25.7301 29.5263C28.7313 26.5372 30.4241 22.8281 30.7443 19.2284C31.0555 15.6469 30.0032 12.1839 27.496 9.68688ZM5.79184 31.3034C5.81014 31.3216 5.81014 31.358 5.79184 31.3763C5.77354 31.3945 5.73694 31.3945 5.71864 31.3763C3.19319 28.861 2.13177 25.3616 2.45203 21.7436C2.77229 18.1257 4.48337 14.3893 7.50292 11.3819C9.79961 9.09453 12.5172 7.56351 15.2806 6.82534C18.1263 6.05984 21.036 6.13274 23.5706 7.0714C23.5981 7.08051 23.6072 7.10785 23.5981 7.13519C23.5889 7.16253 23.5615 7.17165 23.534 7.16253C21.0177 6.23299 18.1354 6.16008 15.2989 6.92559C12.5447 7.66376 9.84537 9.18566 7.56697 11.4548C4.56572 14.444 2.87294 18.153 2.55268 21.7527C2.23243 25.3433 3.2847 28.8063 5.79184 31.3034Z" fill="black"/>
<path d="M26.7828 10.334C26.8011 10.3158 26.8377 10.3158 26.856 10.334C26.8743 10.3522 26.8743 10.3887 26.856 10.4069L18.2274 19.0006C18.2091 18.9733 18.1816 18.9551 18.1542 18.9277L26.7828 10.334ZM15.1438 22.0626L6.51515 30.6564C6.49685 30.6746 6.46025 30.6746 6.44195 30.6564C6.42365 30.6382 6.42365 30.6017 6.44195 30.5835L15.0706 21.9897C15.098 22.0171 15.1163 22.0353 15.1438 22.0626Z" fill="black"/>
<path d="M18.8858 1.1022C18.8675 1.08397 18.8675 1.04752 18.8858 1.02929C18.9041 1.01107 18.9407 1.01107 18.959 1.02929L27.5693 9.6048C27.5876 9.62303 27.5876 9.65948 27.5693 9.67771C27.551 9.69593 27.5144 9.69593 27.4961 9.67771L18.8858 1.1022Z" fill="black"/>
<path d="M5.7188 31.3766C5.7005 31.3584 5.7005 31.3219 5.7188 31.3037C5.7371 31.2855 5.7737 31.2855 5.792 31.3037L14.4023 39.8792C14.4206 39.8974 14.4206 39.9339 14.4023 39.9521C14.384 39.9703 14.3474 39.9703 14.3291 39.9521L5.7188 31.3766Z" fill="black"/>
<path d="M6.44195 30.6559C6.42365 30.6377 6.42365 30.6012 6.44195 30.583C6.46025 30.5648 6.49685 30.5648 6.51515 30.583L16.013 40.0516C16.0313 40.0698 16.0313 40.1063 16.013 40.1245C15.9947 40.1427 15.9581 40.1427 15.9398 40.1245L6.44195 30.6559Z" fill="black"/>
<path fill-rule="evenodd" clip-rule="evenodd" d="M16.754 14.4717C18.3369 14.4717 19.7827 15.0731 20.8624 16.0665L19.1971 17.7251C18.5474 17.1601 17.6873 16.8138 16.754 16.8138C14.7043 16.8138 13.039 18.4724 13.039 20.5137C13.039 22.5551 14.7043 24.2137 16.754 24.2137C18.8036 24.2137 20.4689 22.5551 20.4689 20.5137C20.4689 19.4566 20.0297 18.5088 19.316 17.8344L20.9722 16.185C21.1003 16.3125 21.2192 16.4401 21.3382 16.5677C21.4754 16.7226 21.6035 16.8867 21.7225 17.0598C22.9212 18.764 24.4859 19.8576 26.4989 20.3952L26.9289 20.5137L26.4989 20.6322C24.4859 21.1699 22.912 22.2635 21.7225 23.9676C21.6035 24.1408 21.4754 24.3048 21.3382 24.4597C20.2219 25.7447 18.584 26.5558 16.7448 26.5558C14.9056 26.5558 13.2677 25.7447 12.1514 24.4597C12.0142 24.3048 11.8861 24.1408 11.7671 23.9676C10.5776 22.2543 9.01292 21.1608 6.99988 20.6231L6.56982 20.5046L6.99988 20.3861C9.01292 19.8485 10.5867 18.7549 11.7763 17.0507C11.8952 16.8776 12.0233 16.7135 12.1606 16.5586C13.2677 15.2828 14.9148 14.4717 16.754 14.4717Z" fill="black"/>
<path d="M27.5692 9.61426L29.564 11.6009C30.7993 12.8312 31.7234 14.1891 32.3456 15.6745C32.9678 17.16 33.2881 18.773 33.2881 20.4954C33.2881 25.9177 31.4215 30.8389 28.4111 34.393C25.4007 37.9563 21.2373 40.1525 16.6348 40.1525C16.525 40.1525 16.4152 40.1525 16.2962 40.1525C16.1864 40.1525 16.0766 40.1434 15.9668 40.1434C15.9577 40.1434 15.9394 40.1434 15.9302 40.1252L9.69898 33.91C9.68983 33.9009 9.68068 33.8736 9.68983 33.8553C9.69898 33.828 9.72643 33.8189 9.75388 33.828C12.2702 34.7575 15.1525 34.8304 17.989 34.0649C20.7432 33.3268 23.4425 31.8049 25.7209 29.5357C28.7222 26.5466 30.415 22.8375 30.7352 19.2378C31.0555 15.6472 30.0032 12.1751 27.496 9.68716L27.5692 9.61426ZM28.5392 10.7261C30.3601 13.1137 31.1104 16.1393 30.8359 19.2469C30.5156 22.8648 28.8045 26.6012 25.7941 29.5995C23.4974 31.8869 20.7798 33.4179 18.0165 34.1561C15.244 34.9033 12.4257 34.8578 9.93688 33.992L16.0034 40.0341C16.1132 40.0432 16.2139 40.0432 16.3145 40.0432C16.4152 40.0432 16.5341 40.0432 16.644 40.0432C21.2099 40.0432 25.3458 37.856 28.3379 34.3201C31.33 30.7842 33.1875 25.8904 33.1875 20.4863C33.1783 18.773 32.8672 17.1782 32.2541 15.7019C31.6411 14.2255 30.7169 12.8768 29.4908 11.6647L28.5392 10.7261Z" fill="black"/>
<path d="M24.3028 7.9375L24.3486 7.98307C25.0074 8.63922 25.3368 9.49586 25.3368 10.3616C25.3368 11.2182 25.0166 12.0749 24.3669 12.731L24.3577 12.7401C24.3394 12.7584 24.3394 12.7948 24.3577 12.8131C24.376 12.8313 24.4126 12.8313 24.431 12.8131L26.8466 10.4072C26.8649 10.3889 26.8649 10.3525 26.8466 10.3343L24.4218 7.91928L17.3487 0.865671C17.2389 0.856557 17.1291 0.856557 17.0193 0.856557C16.9004 0.856557 16.7906 0.856557 16.6808 0.856557C12.0508 0.838331 7.88744 3.04372 4.87704 6.59786C1.85748 10.152 0 15.0731 0 20.4955C0.00915017 22.227 0.320256 23.8309 0.942467 25.3163C1.56468 26.8018 2.48885 28.1597 3.72412 29.3899L5.71886 31.3766L5.75546 31.3402L5.79206 31.3037C3.28491 28.8067 2.23264 25.3437 2.5529 21.7531C2.87315 18.1625 4.57508 14.4443 7.56719 11.4552C9.84558 9.18601 12.554 7.66411 15.2991 6.92594C16.8272 6.51585 18.3735 6.34269 19.8742 6.42471C21.4754 6.50673 23.1499 6.78013 24.3028 7.9375Z" fill="black"/>
<path fill-rule="evenodd" clip-rule="evenodd" d="M8.90331 28.2051C7.56739 29.5356 7.56738 31.6954 8.89416 33.026L6.47852 30.6201L8.90331 28.2051Z" fill="black"/>
<path d="M8.93994 28.2415C8.28113 28.8977 7.95173 29.7543 7.95173 30.6201C7.95173 31.4767 8.27198 32.3333 8.92164 32.9895L8.93079 32.9986C8.94909 33.0168 8.94909 33.0533 8.93079 33.0715C8.91249 33.0897 8.87589 33.0897 8.85759 33.0715L6.44195 30.6656C6.42365 30.6474 6.42365 30.611 6.44195 30.5927L8.86674 28.1777L8.93994 28.2415ZM7.85107 30.6201C7.85107 30.0004 8.01578 29.3716 8.35433 28.8248L6.55175 30.6201L8.36348 32.4245C8.01578 31.8686 7.85107 31.2489 7.85107 30.6201Z" fill="black"/>
<path d="M16.6444 18.2803C17.2025 18.2803 17.715 18.4899 18.1084 18.8271L18.0352 18.9C17.6601 18.581 17.1751 18.3805 16.6444 18.3805C16.0588 18.3805 15.5281 18.6175 15.1438 19.0002C14.7595 19.383 14.5215 19.9115 14.5215 20.4948C14.5215 21.078 14.7595 21.6066 15.1438 21.9893C15.5281 22.3721 16.0588 22.609 16.6444 22.609C17.23 22.609 17.7607 22.3721 18.145 21.9893C18.5293 21.6066 18.7672 21.078 18.7672 20.4948C18.7672 19.9115 18.5293 19.383 18.145 19.0002C18.1359 18.9911 18.1176 18.9729 18.1084 18.9638L18.1816 18.8909C18.1908 18.9 18.2091 18.9182 18.2182 18.9273C18.6208 19.3283 18.8679 19.8842 18.8679 20.4948C18.8679 21.1054 18.6208 21.6613 18.2182 22.0622C17.8156 22.4632 17.2574 22.7093 16.6444 22.7093C16.0313 22.7093 15.4732 22.4632 15.0706 22.0622C14.668 21.6613 14.4209 21.1054 14.4209 20.4948C14.4209 19.8842 14.668 19.3283 15.0706 18.9273C15.4732 18.5263 16.0313 18.2803 16.6444 18.2803Z" fill="black"/>
<path fill-rule="evenodd" clip-rule="evenodd" d="M16.6533 18.8271C17.0559 18.8271 17.4219 18.973 17.7147 19.2008L16.9186 19.9936C16.8363 19.9481 16.7539 19.9298 16.6533 19.9298C16.3421 19.9298 16.0951 20.1759 16.0951 20.4857C16.0951 20.7956 16.3421 21.0417 16.6533 21.0417C16.9644 21.0417 17.2114 20.7956 17.2114 20.4857C17.2114 20.3126 17.1291 20.1577 17.0101 20.0574L17.797 19.2737C18.1173 19.5744 18.3277 20.0119 18.3277 20.4857C18.3277 21.4062 17.5774 22.1443 16.6624 22.1443C15.7382 22.1443 14.9971 21.3971 14.9971 20.4857C14.9971 19.5744 15.7291 18.8271 16.6533 18.8271Z" fill="black"/>
<path d="M16.6442 19.9297C16.7449 19.9297 16.8364 19.957 16.9187 20.0026L16.8455 20.0755C16.7815 20.0482 16.7174 20.0299 16.6442 20.0299C16.5161 20.0299 16.3972 20.0846 16.3148 20.1666C16.2325 20.2486 16.1776 20.3671 16.1776 20.4947C16.1776 20.6223 16.2325 20.7408 16.3148 20.8228C16.3972 20.9048 16.5161 20.9595 16.6442 20.9595C16.7723 20.9595 16.8913 20.9048 16.9736 20.8228C17.056 20.7408 17.1109 20.6223 17.1109 20.4947C17.1109 20.3671 17.056 20.2486 16.9736 20.1666C16.9645 20.1575 16.9462 20.1484 16.937 20.1302L17.0102 20.0573C17.0194 20.0664 17.0377 20.0755 17.0468 20.0937C17.1475 20.194 17.2115 20.3307 17.2115 20.4856C17.2115 20.6405 17.1475 20.7772 17.0468 20.8775C16.9462 20.9777 16.8089 21.0415 16.6534 21.0415C16.4978 21.0415 16.3606 20.9777 16.2599 20.8775C16.1593 20.7772 16.0952 20.6405 16.0952 20.4856C16.0952 20.3307 16.1593 20.194 16.2599 20.0937C16.3514 19.9935 16.4887 19.9297 16.6442 19.9297Z" fill="black"/>
<path d="M19.3251 17.752C19.3434 17.7337 19.38 17.7337 19.3983 17.752C19.4166 17.7702 19.4166 17.8066 19.3983 17.8249L16.6807 20.5315C16.6624 20.5497 16.6258 20.5497 16.6075 20.5315C16.5892 20.5132 16.5892 20.4768 16.6075 20.4586L19.3251 17.752Z" fill="black"/>
<path fill-rule="evenodd" clip-rule="evenodd" d="M16.6443 20.377C16.7084 20.377 16.7633 20.4316 16.7633 20.4954C16.7633 20.5592 16.7084 20.6139 16.6443 20.6139C16.5803 20.6139 16.5254 20.5592 16.5254 20.4954C16.5254 20.4316 16.5803 20.377 16.6443 20.377Z" fill="black"/>
<path d="M16.6442 20.3311C16.6899 20.3311 16.7357 20.3493 16.7631 20.3766C16.7906 20.404 16.8089 20.4495 16.8089 20.4951C16.8089 20.5407 16.7906 20.5862 16.7631 20.6136C16.7357 20.6409 16.6899 20.6591 16.6442 20.6591C16.5984 20.6591 16.5527 20.6409 16.5252 20.6136C16.4978 20.5862 16.4795 20.5407 16.4795 20.4951C16.4795 20.4495 16.4978 20.404 16.5252 20.3766C16.5527 20.3493 16.5984 20.3311 16.6442 20.3311ZM16.6899 20.4495C16.6808 20.4404 16.6625 20.4313 16.6442 20.4313C16.6259 20.4313 16.6076 20.4404 16.5984 20.4495C16.5893 20.4586 16.5801 20.4769 16.5801 20.4951C16.5801 20.5133 16.5893 20.5315 16.5984 20.5407C16.6076 20.5498 16.6259 20.5589 16.6442 20.5589C16.6625 20.5589 16.6808 20.5498 16.6899 20.5407C16.6991 20.5315 16.7082 20.5133 16.7082 20.4951C16.7174 20.4769 16.7082 20.4586 16.6899 20.4495Z" fill="black"/>
<path d="M9.02183 33.0709L8.97608 33.0254C8.31726 32.3692 7.98786 31.5126 7.98786 30.6468C7.98786 29.7902 8.30811 28.9336 8.95778 28.2774L8.96693 28.2683C8.98523 28.2501 8.98523 28.2136 8.96693 28.1954C8.94863 28.1772 8.91202 28.1772 8.89372 28.1954L6.47808 30.6013C6.45978 30.6195 6.45978 30.6559 6.47808 30.6742L8.90288 33.0892L15.976 40.1337C16.0858 40.1428 16.1956 40.1428 16.3054 40.1428C16.4243 40.1428 16.5341 40.1428 16.6439 40.1428C21.2373 40.1428 25.4006 37.9374 28.4202 34.3832C31.4306 30.8291 33.2972 25.9171 33.2972 20.4856C33.2881 18.7541 32.977 17.1502 32.3548 15.6648C31.7325 14.1793 30.8084 12.8214 29.5731 11.5912L27.5784 9.60449L27.5418 9.64095L27.5052 9.6774C30.0123 12.1744 31.0646 15.6374 30.7443 19.228C30.4241 22.8186 28.7221 26.5368 25.73 29.5259C23.4516 31.7951 20.7432 33.317 17.9981 34.0552C16.4701 34.4653 14.9237 34.6384 13.4231 34.5564C11.8492 34.4926 10.1747 34.2192 9.02183 33.0709Z" fill="black"/>
</g>
<defs>
<clipPath id="clip0_2383_36666">
<rect width="33.3249" height="39.3234" fill="white" transform="translate(0 0.837891)"/>
</clipPath>
</defs>
</svg>

<svg xmlns="http://www.w3.org/2000/svg" width="185" height="41" fill="none" viewBox="0 0 185 41"><path fill="#000" d="M57.928 35.713c8.785 0 14.503-5.635 14.503-14.295S66.713 7.123 57.928 7.123c-8.702 0-14.462 5.635-14.462 14.295s5.76 14.295 14.462 14.295Zm0-4.31c-6.589 0-9.738-3.065-9.738-9.985s3.15-10.027 9.738-10.027c6.588 0 9.78 3.107 9.78 10.027 0 6.92-3.192 9.986-9.78 9.986Zm22.285 3.896v-11.56c0-3.688 1.45-5.636 4.972-5.636 3.066 0 4.31 1.368 4.31 4.31v1.823h4.433v-2.694c0-3.895-2.03-7.25-6.713-7.25-4.226 0-6.464 2.651-7.085 5.966h-.29v-5.552h-4.103v20.593h4.476Zm25.601.414c4.641 0 7.666-2.237 8.536-6.34h.29V35.3h4.102V7.537h-4.475V20.3h-.248c-.829-3.48-3.605-6.008-8.495-6.008-6.257 0-9.82 4.31-9.82 10.732 0 6.34 3.604 10.69 10.11 10.69Zm-5.594-10.69c0-4.972 2.569-6.671 6.879-6.671 4.599 0 7.168 2.154 7.168 6.547v.331c0 4.31-2.693 6.381-7.086 6.381-4.433 0-6.961-1.657-6.961-6.588Zm31.238 10.69c5.304 0 8.039-3.315 8.702-6.795h.248v6.38h4.103V14.707h-4.434V24.9c0 4.475-2.113 6.795-6.672 6.795-4.35 0-6.132-1.947-6.132-5.8v-11.19h-4.434v12.389c0 4.765 2.818 8.618 8.619 8.618Zm21.594-.414V25.106c0-4.558 1.533-6.796 5.967-6.796 3.978 0 5.552 1.74 5.552 5.801V35.3h4.434V25.106c0-4.558 1.575-6.796 5.967-6.796 3.978 0 5.594 1.74 5.594 5.801V35.3H185V22.91c0-4.971-2.694-8.618-8.039-8.618-5.221 0-7.542 3.274-8.08 6.796h-.249c-.58-3.937-3.108-6.796-7.79-6.796-5.138 0-7.376 3.19-7.915 6.63h-.248v-6.215h-4.103V35.3h4.476Z"/><g fill="#000" clip-path="url(#a)"><path d="M27.496 9.687a.055.055 0 0 1 0-.073.056.056 0 0 1 .073 0c2.526 2.515 3.587 6.015 3.267 9.633-.32 3.617-2.031 7.354-5.042 10.352-2.297 2.288-5.014 3.819-7.777 4.557-2.846.765-5.756.692-8.29-.246-.028-.01-.037-.037-.028-.064.01-.027.037-.036.064-.027 2.516.93 5.399 1.002 8.235.236 2.754-.738 5.454-2.26 7.732-4.529 3.001-2.989 4.694-6.698 5.014-10.298.311-3.581-.74-7.044-3.248-9.541ZM5.792 31.303c.018.019.018.055 0 .073a.056.056 0 0 1-.073 0c-2.526-2.515-3.587-6.014-3.267-9.632.32-3.618 2.031-7.355 5.05-10.362 2.298-2.287 5.015-3.818 7.779-4.557 2.845-.765 5.755-.692 8.29.246.027.01.036.037.027.064-.01.028-.037.037-.064.028-2.516-.93-5.399-1.003-8.235-.237-2.754.738-5.454 2.26-7.732 4.529-3.001 2.989-4.694 6.698-5.014 10.298-.32 3.59.732 7.053 3.239 9.55Zm20.991-20.969a.056.056 0 0 1 .073 0 .055.055 0 0 1 0 .073L18.227 19c-.018-.028-.045-.046-.073-.073l8.629-8.594Zm-11.64 11.729-8.628 8.593a.056.056 0 0 1-.073 0 .055.055 0 0 1 0-.072l8.629-8.594.073.073Z"/><path d="M18.886 1.102a.055.055 0 0 1 0-.073.056.056 0 0 1 .073 0l8.61 8.576a.055.055 0 0 1 0 .073.056.056 0 0 1-.073 0l-8.61-8.576ZM5.719 31.377a.055.055 0 0 1 0-.073.056.056 0 0 1 .073 0l8.61 8.575a.055.055 0 0 1 0 .073.056.056 0 0 1-.073 0l-8.61-8.575Zm.723-.721a.055.055 0 0 1 0-.073.056.056 0 0 1 .073 0l9.498 9.469a.055.055 0 0 1 0 .072.056.056 0 0 1-.073 0l-9.498-9.468Z"/><path fill-rule="evenodd" d="M16.754 14.472c1.583 0 3.029.601 4.108 1.595l-1.665 1.658a3.723 3.723 0 0 0-2.443-.911 3.71 3.71 0 0 0-3.715 3.7 3.71 3.71 0 0 0 3.715 3.7 3.71 3.71 0 0 0 3.715-3.7 3.67 3.67 0 0 0-1.153-2.68l1.656-1.649c.128.128.247.255.366.383.137.155.265.319.384.492 1.2 1.704 2.764 2.798 4.777 3.335l.43.119-.43.118c-2.013.538-3.587 1.631-4.776 3.336a6.058 6.058 0 0 1-4.978 2.588 6.058 6.058 0 0 1-4.978-2.588C10.577 22.254 9.013 21.16 7 20.623l-.43-.118.43-.119c2.013-.537 3.587-1.631 4.776-3.335a6.067 6.067 0 0 1 4.978-2.579Z" clip-rule="evenodd"/><path d="m27.57 9.614 1.994 1.987c1.235 1.23 2.16 2.588 2.782 4.073.622 1.486.942 3.099.942 4.821 0 5.423-1.866 10.344-4.877 13.898-3.01 3.563-7.174 5.76-11.776 5.76h-.339c-.11 0-.22-.01-.33-.01-.008 0-.027 0-.036-.018L9.7 33.91a.057.057 0 0 1-.01-.055c.01-.027.037-.036.065-.027 2.516.93 5.399 1.002 8.235.237 2.754-.738 5.453-2.26 7.732-4.53 3.001-2.988 4.694-6.698 5.014-10.297.32-3.59-.732-7.063-3.239-9.55l.073-.074Zm.97 1.112c1.82 2.388 2.57 5.413 2.296 8.52-.32 3.619-2.031 7.355-5.042 10.354-2.297 2.287-5.014 3.818-7.777 4.556-2.773.747-5.591.702-8.08-.164l6.066 6.042c.11.01.21.01.311.01h.33c4.566 0 8.702-2.188 11.694-5.724 2.992-3.536 4.85-8.43 4.85-13.834-.01-1.713-.32-3.308-.934-4.784-.613-1.476-1.537-2.825-2.763-4.037l-.952-.939Zm-4.237-2.788.046.045c.658.656.988 1.513.988 2.379 0 .856-.32 1.713-.97 2.369l-.01.01a.055.055 0 0 0 0 .072c.019.018.056.018.074 0l2.416-2.406c.018-.018.018-.055 0-.073L24.422 7.92 17.349.866c-.11-.01-.22-.01-.33-.01h-.338C12.05.839 7.887 3.045 4.877 6.599 1.857 10.152 0 15.073 0 20.496c.01 1.731.32 3.335.942 4.82.623 1.486 1.547 2.844 2.782 4.074l1.995 1.987.036-.037.037-.036c-2.507-2.497-3.56-5.96-3.24-9.55.321-3.591 2.023-7.31 5.015-10.299 2.279-2.269 4.987-3.79 7.732-4.53a14.611 14.611 0 0 1 4.575-.5c1.601.082 3.276.355 4.429 1.513Z"/><path fill-rule="evenodd" d="M8.903 28.205a3.409 3.409 0 0 0-.009 4.821L6.48 30.62l2.424-2.415Z" clip-rule="evenodd"/><path d="M8.94 28.241a3.339 3.339 0 0 0-.988 2.38c0 .856.32 1.712.97 2.369l.009.009a.055.055 0 0 1 0 .072.056.056 0 0 1-.073 0l-2.416-2.405c-.018-.019-.018-.055 0-.073l2.425-2.415.073.063Zm-1.089 2.38c0-.62.165-1.25.503-1.796L6.552 30.62l1.811 1.805a3.376 3.376 0 0 1-.512-1.805Zm8.793-12.341c.559 0 1.071.21 1.464.547l-.073.073a2.12 2.12 0 0 0-3.514 1.595 2.12 2.12 0 0 0 2.123 2.114 2.12 2.12 0 0 0 2.123-2.114 2.103 2.103 0 0 0-.659-1.531l.074-.073.036.036c.403.401.65.957.65 1.568 0 .61-.247 1.166-.65 1.567-.402.401-.96.647-1.574.647a2.224 2.224 0 0 1-1.573-.647c-.403-.4-.65-.957-.65-1.567s.247-1.167.65-1.568c.402-.4.96-.647 1.573-.647Z"/><path fill-rule="evenodd" d="M16.653 18.827c.403 0 .769.146 1.062.374l-.796.793a.52.52 0 0 0-.266-.064.553.553 0 0 0-.558.556c0 .31.247.556.558.556a.553.553 0 0 0 .558-.556.564.564 0 0 0-.2-.429l.786-.783c.32.3.53.738.53 1.212 0 .92-.75 1.658-1.665 1.658a1.662 1.662 0 0 1-1.665-1.658c0-.912.732-1.659 1.656-1.659Z" clip-rule="evenodd"/><path d="M16.644 19.93c.1 0 .192.027.275.073l-.073.073a.472.472 0 0 0-.53.091.468.468 0 0 0-.138.328.468.468 0 0 0 .796.328.468.468 0 0 0 .137-.328.468.468 0 0 0-.137-.328c-.01-.01-.028-.019-.037-.037l.073-.073c.01.01.028.019.037.037a.55.55 0 0 1 0 .784.554.554 0 0 1-.787 0 .55.55 0 0 1 0-.784.518.518 0 0 1 .384-.164Z"/><path d="M19.325 17.752a.056.056 0 0 1 .073 0c.019.018.019.055 0 .073l-2.717 2.707a.056.056 0 0 1-.073 0c-.019-.019-.019-.055 0-.073l2.717-2.707Z"/><path fill-rule="evenodd" d="M16.644 20.377a.12.12 0 0 1 .12.118.12.12 0 0 1-.12.119.12.12 0 0 1-.119-.119.12.12 0 0 1 .12-.118Z" clip-rule="evenodd"/><path d="M16.644 20.331c.046 0 .092.018.12.046a.173.173 0 0 1 .045.118.173.173 0 0 1-.046.119.174.174 0 0 1-.119.045.175.175 0 0 1-.119-.045.173.173 0 0 1-.045-.119c0-.046.018-.091.045-.118a.175.175 0 0 1 .12-.046Zm.046.119a.07.07 0 0 0-.046-.019.07.07 0 0 0-.046.018.07.07 0 0 0-.018.046c0 .018.01.037.018.046a.07.07 0 0 0 .046.018.07.07 0 0 0 .046-.018.07.07 0 0 0 .018-.046c.01-.018 0-.036-.018-.046Z"/><path d="m9.022 33.07-.046-.045a3.339 3.339 0 0 1-.988-2.378c0-.857.32-1.713.97-2.37l.009-.009a.055.055 0 0 0 0-.073.056.056 0 0 0-.073 0l-2.416 2.406c-.018.018-.018.055 0 .073l2.425 2.415 7.073 7.045c.11.009.22.009.33.009h.338c4.593 0 8.757-2.206 11.776-5.76 3.01-3.554 4.877-8.466 4.877-13.897-.009-1.732-.32-3.336-.942-4.821-.622-1.486-1.547-2.844-2.782-4.074l-1.995-1.987-.036.037-.037.036c2.507 2.497 3.56 5.96 3.24 9.551-.32 3.59-2.023 7.309-5.015 10.298-2.278 2.27-4.987 3.791-7.732 4.53-1.528.41-3.074.582-4.575.5-1.574-.063-3.248-.337-4.401-1.485Z"/></g><defs><clipPath id="a"><path fill="#fff" d="M0 .838h33.325V40.16H0z"/></clipPath></defs></svg>
